!!!OTL: DER WALDBEERSTRAUCH
!!!ARE: Europa, Mitteleuropa, Deutschland, Niederrhein
!!!SCT: E0433
!!!YEM: Copyright 1995, estate of Helmut Schaffrath.
**kern
*ICvox
*Ivox
*M2/4
*k[b-e-]
*B-:
{8f
=1
8b-
8a
8b-
8b-
=2
16dd
16cc
8a
8b-}
{8b-
=3
8cc
8dd
8ee-
8ff
=4
4dd
8cc}
{8cc
=5
8.cc
16dd
8ee-
8cc
=6
8dd
8ee-
4ff}
=7
{8b-
8dd
4cc
=8
8b-
8a
8g}
{8f
=9
8b-
8cc
8.dd
16b-
=10
4cc
8b-}
==
!!!AGN: Liebes - Lied
!!!ONB: ESAC (Essen Associative Code) Database: ERK1
!!!AMT: simple duple
!!!AIN: vox
!!!EED: Helmut Schaffrath
!!!EEV: 1.0
*-
